X:1
T:Title
%%score { 1 | ( 2 3 ) }
L:1/8
Q:1/4=100
M:4/4
K:C
V:1 treble nm="Grand Piano"
V:2 bass 
V:3 bass 
V:1
 [G,EG]2 [G,EG]2 [G,EG]>[G,DF] [G,CE]>[G,DF] | [CEG]2 [CEc]6 | %2
w: T.~E.~Perkins * * * * *||
 [CFA]2 [CFA]2 [CAc]>[C^GB] [CAc]>[CFA] | [CEG]6 z2 | [G,EG]2 [G,EG]2 [G,EG]>[G,DF] [G,CE]>[G,DF] | %5
w: |||
 [CEG]2 [Ec]6 | [DB]2 [GB]2 [^Fd]>[Fc] [FA]>[FB] | G6 z2 | B2 c2 d>c e>d | [Ec]2 [EG]4 z2 | %10
w: |||||
 [FA]2 [FA]2 [^FA]>[FA] [Fd]>[DFc] |[M:9/8] [DGB]2 [Ec]- [Ec] [Fd]2- [Fd][Ge]>[Fd] | %12
w: ||
[M:4/4] [Ec]2 [EG]2 [Ec]2 [GB]2 | [FA]2 [Ac]4 [GB]>[FA] | [EG]2 [Gc]2 [FB]2 [Ec]2 | d6 e>d | %16
w: ||||
 [Ec]2 [EG]2 [Ec]2 [GB]2 | [FA]2 [Ac]4 [GB]>A | G3 c c2 B2 | [Ec]6 z2 |] %20
w: ||||
V:2
 C,2 C,2 C,>C, C,>C, | C,2 C,6 | F,2 F,2 F,>F, F,>F, | C,6 z2 | C,2 C,2 C,>C, C,>C, | C,2 [C,G,]6 | %6
 [D,G,]2 [D,D]2 [D,A,]>[D,A,] [D,C]>[D,D] | [G,B,]6 z2 | [G,D]2 [G,E]2 [G,F]>[G,E] [G,G]>[G,F] | %9
 [C,G,]2 [C,C]4 z2 | [F,C]2 [F,C]2 [D,C]>[D,C] [D,A,]>D, |[M:9/8] z2 C- C B,2- B,[G,C]>[G,B,] | %12
[M:4/4] [C,C]2 [C,C]2 [C,G,]2 [E,C]2 | [F,C]2 [F,C]4 [F,C]>[F,C] | [G,C]2 [E,C]2 [D,G,]2 [C,C]2 | %15
 [G,B,G]6 [G,CG]>[G,B,F] | [C,C]2 [C,C]2 [C,G,]2 [E,C]2 | [F,C]2 [F,C]4 [F,C]>[F,CF] | %18
 [G,CE]3 [G,E] [G,E]2 [G,D]2 | [C,G,]6 z2 |] %20
V:3
 x8 | x8 | x8 | x8 | x8 | x8 | x8 | x8 | x8 | x8 | x8 |[M:9/8] G,6- G,/ z/ z z |[M:4/4] x8 | x8 | %14
 x8 | x8 | x8 | x8 | x8 | x8 |] %20

